X:62
T:The Trip to Mesilla
R:reel
C: 1990, 2010 L.E. McCullough 
M:4/4 
L:1/8
K:D
|:D~F3 GFEF|D~F3 Bcde|f~B3 ABdf|gfed efdB|
D~F3 GFEF|D~F3 Bcde|f~B3 ABdf|1 efdA ~B3F:|2 efdA ~B3d|]
|:~f3g ~a3b|afed f~B3|A~B3 d~B3|gfed efde|
~f3g ~a3b|afed f~B3|ABde f~B3|1efdA ~B3d:|2 efdA ~B3F|]
<end>
<start>
